src/pages/screens/Techs/images/frontend/Javascript.svg

<svg width="32" height="32" viewBox="0 0 32 32" fill="none" xmlns="http://www.w3.org/2000/svg">
<path d="M0 0H32V32H0V0Z" fill="#F7DF1E"/>
<path d="M8.41394 26.7415L10.8627 25.2595C11.3352 26.0972 11.7649 26.8059 12.7958 26.8059C13.7839 26.8059 14.4071 26.4194 14.4071 24.9159V14.6912H17.4142V24.9584C17.4142 28.073 15.5884 29.4908 12.9247 29.4908C10.5191 29.4908 9.12269 28.2449 8.41382 26.7413" fill="black"/>
<path d="M19.0477 26.4192L21.4962 25.0015C22.1409 26.0542 22.9786 26.8274 24.4606 26.8274C25.7067 26.8274 26.5012 26.2044 26.5012 25.3452C26.5012 24.3142 25.685 23.9489 24.3102 23.3477L23.5586 23.0252C21.389 22.1018 19.9499 20.9418 19.9499 18.493C19.9499 16.2375 21.6682 14.519 24.3534 14.519C26.2651 14.519 27.6399 15.185 28.6279 16.9249L26.2864 18.4287C25.7707 17.505 25.2125 17.1399 24.3532 17.1399C23.4725 17.1399 22.914 17.6984 22.914 18.4287C22.914 19.3308 23.4725 19.6962 24.7612 20.2547L25.513 20.5768C28.0692 21.6724 29.5084 22.7893 29.5084 25.3023C29.5084 28.009 27.3819 29.491 24.525 29.491C21.7326 29.491 19.9282 28.1593 19.0476 26.4193" fill="black"/>
</svg>

<svg width="32" height="32" fill="none" xmlns="http://www.w3.org/2000/svg"><path d="M0 0h32v32H0V0z" fill="#F7DF1E"/><path d="m8.414 26.741 2.449-1.482c.472.838.902 1.547 1.933 1.547.988 0 1.611-.387 1.611-1.89V14.69h3.007v10.267c0 3.115-1.826 4.533-4.49 4.533-2.405 0-3.801-1.246-4.51-2.75M19.048 26.42 21.496 25c.645 1.053 1.483 1.826 2.965 1.826 1.246 0 2.04-.623 2.04-1.482 0-1.03-.816-1.396-2.19-1.997l-.752-.323c-2.17-.923-3.61-2.083-3.61-4.532 0-2.255 1.72-3.974 4.404-3.974 1.912 0 3.287.666 4.275 2.406l-2.342 1.504c-.515-.924-1.074-1.29-1.933-1.29-.88 0-1.439.56-1.439 1.29 0 .902.558 1.267 1.847 1.826l.752.322c2.556 1.095 3.995 2.212 3.995 4.725 0 2.707-2.126 4.189-4.983 4.189-2.792 0-4.597-1.332-5.477-3.072" fill="#000"/></svg>
